X:1
T:I Am Standing on the Word of God
T:Daniel Brink Towner
T:I Am Standing on the Word of God
T:Public Domain
T:Public Domain
T:Public Domain
C:Daniel Brink Towner
Z:Public Domain
%%score ( 1 2 ) ( 3 4 )
L:1/8
M:4/2
K:F
V:1 treble 
V:2 treble 
V:3 bass 
V:4 bass 
V:1
 [FA]2 [GB]2 | [Ac]2 [FA]2 [CG]2 [CF]2 [B,D]4 [CE]4 | [CF]12 ([CE]2 [B,D]2) | %3
w: 1.~I am|stand- ing on the Word of|God, Which *|
w: 2.~I am|stand- ing on the Word of|God, ’Tis *|
w: 3.~I am|stand- ing on the Word of|God, ’Tis *|
w: 4.~I am|stand- ing on the Word of|God, And *|
w: 5.~I am|stand- ing on the Word of|God, And *|
 ([A,C]2 [CF]2) (F2 G2) [FA]4 [FA]4 | [EG]12 ([FA]2 [GB]2) | [Ac]2 [FA]2 [CG]2 [CF]2 [B,D]4 [CE]4 | %6
w: came * to * men of|The Ho- *|ly Book our fa- thers loved,|
w: ho- * ly * and ’tis|Through ag- *|es it has been our light,|
w: full * of * life di-|God’s Spir- *|it lives in ev- ’ry word,|
w: thus * I * am se-|Though blows *|the temp- est wild and hard,|
w: on * my * dy- ing|I’ll share *|its con- so- la- tions, Lord,|
 [CF]12 ([CE]2 [B,D]2) | ([A,C]2 [CF]2) ([CF]2 [FG]2) [FA]4 [CG]4 | [CF]12 || %9
w: And trea- *|sured * more * than gold.||
w: With splen- *|dor * ev- * er new.|I|
w: And moves *|in * ev- * ’ry line.||
w: ’Twill ev- *|er- * more * en- dure.||
w: When death’s *|dark * vale * I tread.||
"^Refrain" [FA]2 [GB]2 | [Ac]8 [FA]8 | [CF]2 [CG]2 [CF]2 D2 [CF]4 [CA]2 [CB]2 | %12
w: |||
w: am stand-|ing, stand-|ing on the Word, Though the earth|
w: |||
w: |||
w: |||
 [Fc]8 (B2 A2) [FG]2 F2 | [EG]12 [FA]2 [GB]2 | [Ac]8 [FA]8 | %15
w: |||
w: and de- * cay, It|er, nev- er|pass a-|
w: |||
w: |||
w: |||
 [CF]2 [CG]2 [CF]2 D2 [CF]4 [CF]2 [CG]2 | [FA]2 [FB]2 [Fc]2 [Fd]2 [FA]4 [CG]4 | [CF]8 |] %18
w: |||
w: way, I am stand- ing on the|of God. * * * *||
w: |||
w: |||
w: |||
V:2
 x4 | x16 | x16 | x4 C4 x8 | x16 | x16 | x16 | x16 | x12 || x4 | x16 | x6 D2 x8 | x8 F4 F2 x2 | %13
w: |||old;||||||||||
w: |||true;||||||||change|shall nev-|
w: |||vine;||||||||||
w: |||cure;||||||||||
w: |||bed||||||||||
 x16 | x16 | x6 D2 x8 | x16 | x8 |] %18
w: |||||
w: ||Word|||
w: |||||
w: |||||
w: |||||
V:3
 F,2 F,2 | F,2 [F,C]2 [F,B,]2 [F,A,]2 [D,G,]4 [C,B,]4 | [F,A,]12 F,4 | %3
w: ~ ~|~ ~ ~ ~ ~ ~|~ ~|
 (F,2 A,2) (A,2 B,2) [F,C]4 [F,C]4 | [C,C]12 [F,C]4 | %5
w: ~ * ~ * ~ ~|~ ~|
 [F,C]2 [F,C]2 [F,B,]2 [F,A,]2 [D,G,]4 [C,B,]4 | [F,A,]12 F,4 | %7
w: ~ ~ ~ ~ ~ ~|~ ~|
 F,2 A,2 [A,,C]2 [B,,D]2 [C,C]4 [C,B,]4 | [F,A,]12 || F,2 F,2 | F,4 (F,2 A,2) [F,C]4 [F,C]4 | %11
w: I am stand- ing, standing, ~|~|~ ~|~ ~ * ~ ~|
 [F,A,]2 [F,B,]2 [F,A,]2 [F,A,]2 [F,A,]4 F,2 [F,G,]2 | [F,A,]8 (D2 C2) [F,B,]2 [F,A,]2 | %13
w: It shall nev- er, nev- er, *||
 [C,C]12 F,2 F,2 | F,4 (F,2 A,2) [F,C]4 [F,C]4 | %15
w: ||
 [F,A,]2 [F,B,]2 [F,A,]2 [F,A,]2 [F,A,]4 [F,A,]2 [F,B,]2 | %16
w: |
 [F,C]2 [D,F,]2 [A,,F,]2 [B,,F,]2 [C,C]4 [C,B,]4 | [F,A,]8 |] %18
w: ||
V:4
 F,2 F,2 | F,2 x14 | x12 F,4 | F,4 F,4 x8 | x16 | x16 | x12 F,4 | F,4 x12 | x12 || F,2 F,2 | %10
w: ~ ~|~|~|~ ~|||~|~||~ ~|
 F,4 F,4 x8 | x12 F,2 x2 | x8 F,4 x4 | x12 F,2 F,2 | F,4 F,4 x8 | x16 | x16 | x8 |] %18
w: ~ ~||||||||

